X:0598
M:C|
L:1/8
Q:1/2=80
K:D
ED|d4   e4  |f2d2 d2ag|fgab  a2 ^g2   |a6  ::
cd|e4   f4  |e2c2 c2A2|dede Te3 (d/e/)|f6
ag|f2a2 e2a2|d2A2 dede|f2gf Te3  d    |d6  :|

